icons/svg/icons8/bicycle.svg

<svg width="26" height="26" viewBox="0 0 26 26" fill="none" xmlns="http://www.w3.org/2000/svg">
<g clip-path="url(#clip0)">
<path d="M12.5 20.5H5.5L9.384 12.5H16.985L17.308 13.519L12.5 20.5Z" stroke="#333333" stroke-width="1.5" stroke-miterlimit="10" stroke-linecap="round" stroke-linejoin="round"/>
<path d="M9.22614 16.718L8.39014 18.439C8.47214 18.552 8.53814 18.675 8.60714 18.799H10.5101C10.2401 18.008 9.80914 17.292 9.22614 16.718Z" fill="#333333"/>
<path d="M8.60601 22.2C8.00101 23.302 6.84201 24.058 5.50001 24.058C3.53801 24.058 1.94101 22.461 1.94101 20.499C1.94101 18.596 3.44801 17.049 5.33001 16.958L6.15701 15.253C5.93901 15.226 5.72501 15.187 5.50001 15.187C2.56501 15.187 0.187012 17.565 0.187012 20.5C0.187012 23.435 2.56501 25.813 5.50001 25.813C7.83601 25.813 9.79801 24.295 10.51 22.201H8.60601V22.2Z" fill="#333333"/>
<path d="M19.5 7.5C18.456 9.003 16.02 8.725 16.02 8.725C16.02 8.725 17.325 15.598 20.5 20.5" stroke="#333333" stroke-width="1.5" stroke-miterlimit="10" stroke-linecap="round" stroke-linejoin="round"/>
<path d="M20.5 15.188C20.246 15.188 20.003 15.228 19.758 15.263C19.982 15.822 20.222 16.383 20.486 16.944C20.491 16.944 20.496 16.942 20.501 16.942C22.463 16.942 24.06 18.539 24.06 20.501C24.06 22.463 22.463 24.06 20.501 24.06C18.539 24.06 16.942 22.463 16.942 20.501C16.942 19.799 17.153 19.148 17.505 18.597C17.215 17.995 16.95 17.392 16.704 16.792C15.768 17.75 15.187 19.056 15.187 20.501C15.187 23.436 17.565 25.814 20.5 25.814C23.435 25.814 25.813 23.436 25.813 20.501C25.813 17.566 23.435 15.188 20.5 15.188Z" fill="#333333"/>
<path d="M8.83594 11.094L12.4999 20.5" stroke="#333333" stroke-width="1.5" stroke-miterlimit="10" stroke-linecap="round" stroke-linejoin="round"/>
<path d="M10.9532 10.334C10.9532 10.766 10.4582 10.862 8.83622 11.271C7.20222 11.682 6.07422 12.844 6.07422 10.746C6.07422 10.187 6.23422 10.001 6.70322 10.001C6.99022 10.001 10.0162 10.001 10.0162 10.001C10.4782 9.99999 10.9532 9.99999 10.9532 10.334Z" fill="#333333"/>
</g>
<defs>
<clipPath id="clip0">
<rect width="26" height="26" fill="white"/>
</clipPath>
</defs>
</svg>

<?xml version="1.0" encoding="utf-8"?>
<!-- Generator: Adobe Illustrator 15.0.0, SVG Export Plug-In . SVG Version: 6.00 Build 0)  -->
<!DOCTYPE svg PUBLIC "-//W3C//DTD SVG 1.1//EN" "http://www.w3.org/Graphics/SVG/1.1/DTD/svg11.dtd">
<svg version="1.1" id="Layer_1" xmlns="http://www.w3.org/2000/svg" xmlns:xlink="http://www.w3.org/1999/xlink" x="0px" y="0px"
	 width="26px" height="26px" viewBox="0 0 26 26" enable-background="new 0 0 26 26" xml:space="preserve">
<rect x="902" y="1469" fill="#333333" width="26" height="2"/>
<rect x="902" y="1489" fill="#333333" width="26" height="2"/>
<rect x="906" y="1474" fill="#333333" width="18" height="2"/>
<rect x="902" y="1479" fill="#333333" width="26" height="2"/>
<rect x="906" y="1484" fill="#333333" width="18" height="2"/>
<rect x="902" y="1467" fill="none" width="26" height="26"/>
<rect fill="none" width="26" height="26"/>
<polygon fill="none" stroke="#333333" stroke-width="1.5" stroke-linecap="round" stroke-linejoin="round" stroke-miterlimit="10" points="
	12.5,20.5 5.5,20.5 9.384,12.5 16.985,12.5 17.308,13.519 "/>
<g>
	<path fill="#333333" d="M9.226,16.718L8.39,18.439c0.082,0.113,0.148,0.236,0.217,0.36h1.903
		C10.24,18.008,9.809,17.292,9.226,16.718z"/>
	<path fill="#333333" d="M8.606,22.2c-0.605,1.102-1.764,1.858-3.106,1.858c-1.962,0-3.559-1.597-3.559-3.559
		c0-1.903,1.507-3.45,3.389-3.541l0.827-1.705c-0.218-0.027-0.432-0.066-0.657-0.066c-2.935,0-5.313,2.378-5.313,5.313
		s2.378,5.313,5.313,5.313c2.336,0,4.298-1.518,5.01-3.612H8.606z"/>
</g>
<path fill="none" stroke="#333333" stroke-width="1.5" stroke-linecap="round" stroke-linejoin="round" stroke-miterlimit="10" d="
	M19.5,7.5c-1.044,1.503-3.48,1.225-3.48,1.225s1.305,6.873,4.48,11.775"/>
<path fill="#333333" d="M20.5,15.188c-0.254,0-0.497,0.04-0.742,0.075c0.224,0.559,0.464,1.12,0.728,1.681
	c0.005,0,0.01-0.002,0.015-0.002c1.962,0,3.559,1.597,3.559,3.559s-1.597,3.559-3.559,3.559s-3.559-1.597-3.559-3.559
	c0-0.702,0.211-1.353,0.563-1.904c-0.29-0.602-0.555-1.205-0.801-1.805c-0.936,0.958-1.517,2.264-1.517,3.709
	c0,2.935,2.378,5.313,5.313,5.313s5.313-2.378,5.313-5.313S23.435,15.188,20.5,15.188z"/>
<line fill="none" stroke="#333333" stroke-width="1.5" stroke-linecap="round" stroke-linejoin="round" stroke-miterlimit="10" x1="8.836" y1="11.094" x2="12.5" y2="20.5"/>
<path fill="#333333" d="M10.953,10.334c0,0.432-0.495,0.528-2.117,0.937c-1.634,0.411-2.762,1.573-2.762-0.525
	c0-0.559,0.16-0.745,0.629-0.745c0.287,0,3.313,0,3.313,0C10.478,10,10.953,10,10.953,10.334z"/>
</svg>
